X:227
T: AUF ERDEN ZU ALLER STUND
N: E0114
O: Europa, Mitteleuropa, Deutschland, Rheinland
R: erzaehlendes Volks - Lied, Schalk -, Schelmen - Lied, betrogene Liebe
M: 4/4
L: 1/8
K: G
D2 | G4F2G2 | A4G2
A2 | B2d2c2B2 | A4z2
GA | B2B2B2AB | c3dc2
cB | A2A2A2Bc | d3ed2
d2 | G6B2 | A6GA | B2B2dcA2 | G4z2

